assets/static/svgs/currencies/icon-japanese-yen.svg

<svg width="1em" height="1em"  viewBox="0 0 24 24" fill="none" xmlns="http://www.w3.org/2000/svg">
<symbol id="item"
width="1em"
height="1em"
viewBox="0 0 24 24"
fill="none"
>
 <path d="M21.7007 14.4192C20.3649 19.7764 14.9384 23.0367 9.58001 21.7008C4.22382 20.3652 0.963159 14.9389 2.29955 9.58206C3.63469 4.22425 9.06121 0.963624 14.418 2.29925C19.7761 3.63487 23.0364 9.06175 21.7007 14.4192Z" fill="#F7931A"/> <path d="M16.4098 10.5754C16.6089 9.24478 15.5957 8.52947 14.2102 8.05228L14.6596 6.24978L13.5623 5.97634L13.1248 7.73134C12.8363 7.65947 12.54 7.59166 12.2456 7.52447L12.6863 5.7579L11.5896 5.48447L11.1399 7.28634C10.9011 7.23196 10.6667 7.17822 10.4392 7.12166L10.4404 7.11603L8.92717 6.73821L8.63526 7.91009C8.63526 7.91009 9.44941 8.09665 9.43222 8.10822C9.87664 8.21915 9.95696 8.51321 9.94352 8.74634L9.43159 10.7998C9.46222 10.8076 9.50191 10.8188 9.54567 10.8363C9.5091 10.8273 9.47004 10.8173 9.42972 10.8076L8.71214 13.6842C8.65776 13.8192 8.51994 14.0217 8.20928 13.9448C8.22022 13.9607 7.41169 13.7457 7.41169 13.7457L6.86694 15.0017L8.29491 15.3576C8.56056 15.4242 8.8209 15.4938 9.07717 15.5595L8.62307 17.3826L9.71912 17.656L10.1689 15.8523C10.4683 15.9335 10.7589 16.0085 11.0433 16.0792L10.5952 17.8745L11.6925 18.1479L12.1466 16.3282C14.0177 16.6823 15.4247 16.5395 16.017 14.8473C16.4942 13.4848 15.9932 12.6988 15.0087 12.1863C15.7257 12.021 16.2658 11.5495 16.4098 10.5754ZM13.9027 14.0907C13.5636 15.4532 11.2693 14.7167 10.5255 14.532L11.128 12.1167C11.8719 12.3023 14.2571 12.6698 13.9027 14.0907ZM14.2421 10.5557C13.9327 11.7951 12.0231 11.1654 11.4037 11.011L11.95 8.82041C12.5694 8.97478 14.5643 9.2629 14.2421 10.5557Z" fill="var(--color--bulma-100)"/> <circle cx="12" cy="12" r="12" fill="#FF3D44"/> <path d="M17 6.37216H13.7875L12.0082 10.5468H11.9753L10.1796 6.37216H7L9.83361 11.9267H8.21911V13.4464H10.5914V14.3023H8.21911V15.8045H10.5914V18.3722H13.3921V15.8045H15.6161V14.3023H13.3921V13.4464H15.6161V11.9267H14.1499L17 6.37216Z" fill="var(--color--bulma-100)"/> 
</symbol>
</svg>

<svg width="1em" height="1em"    viewBox="0 0 24 24" fill="none" xmlns="http://www.w3.org/2000/svg">
<symbol id="item"
width="1em"
height="1em"
viewBox="0 0 24 24"
fill="none"
>
<path d="M21.7 14.42c-1.335 5.356-6.762 8.617-12.12 7.28C4.224 20.366.963 14.94 2.3 9.583 3.635 4.224 9.06.964 14.418 2.3c5.358 1.336 8.618 6.763 7.283 12.12Z" fill="#F7931A"/><path d="M16.41 10.575c.199-1.33-.814-2.046-2.2-2.523l.45-1.802-1.098-.274-.437 1.755c-.289-.072-.585-.14-.88-.207l.441-1.766-1.096-.274-.45 1.802a36.683 36.683 0 0 1-.7-.164v-.006l-1.513-.378-.292 1.172s.814.187.797.198c.445.111.525.405.512.638L9.432 10.8c.03.008.07.019.114.036l-.116-.028-.718 2.876c-.054.135-.192.338-.503.26.011.017-.797-.198-.797-.198l-.545 1.256 1.428.356c.266.066.526.136.782.201l-.454 1.824 1.096.273.45-1.804c.3.082.59.157.874.227l-.448 1.796 1.098.273.454-1.82c1.87.354 3.278.212 3.87-1.48.477-1.363-.024-2.15-1.008-2.662.717-.165 1.257-.636 1.4-1.61Zm-2.507 3.516c-.34 1.362-2.634.626-3.378.441l.603-2.415c.744.185 3.13.553 2.775 1.974Zm.34-3.535c-.31 1.24-2.22.61-2.84.455l.547-2.19c.62.154 2.614.442 2.292 1.735Z" fill="var(--color--bulma-100)"/><circle cx="12" cy="12" r="12" fill="#FF3D44"/><path d="M17 6.372h-3.213l-1.779 4.175h-.033L10.18 6.372H7l2.834 5.555H8.219v1.52h2.372v.855H8.22v1.503h2.372v2.567h2.801v-2.567h2.224v-1.503h-2.224v-.856h2.224v-1.52H14.15L17 6.373Z" fill="var(--color--bulma-100)"/>
</symbol>
</svg>
